newicons/fategrandorder.svg

<?xml version="1.0" encoding="UTF-8" standalone="no"?>
<svg
   width="48"
   height="48"
   version="1.1"
   viewBox="0 0 48 48"
   xml:space="preserve"
   id="svg7"
   sodipodi:docname="fategrandorder.svg"
   inkscape:version="1.3.2 (091e20ef0f, 2023-11-25, custom)"
   xmlns:inkscape="http://www.inkscape.org/namespaces/inkscape"
   xmlns:sodipodi="http://sodipodi.sourceforge.net/DTD/sodipodi-0.dtd"
   xmlns="http://www.w3.org/2000/svg"
   xmlns:svg="http://www.w3.org/2000/svg"><sodipodi:namedview
     id="namedview7"
     pagecolor="#505050"
     bordercolor="#eeeeee"
     borderopacity="1"
     inkscape:showpageshadow="0"
     inkscape:pageopacity="0"
     inkscape:pagecheckerboard="0"
     inkscape:deskcolor="#505050"
     inkscape:zoom="13.232073"
     inkscape:cx="26.753178"
     inkscape:cy="26.639817"
     inkscape:window-width="1916"
     inkscape:window-height="1039"
     inkscape:window-x="0"
     inkscape:window-y="0"
     inkscape:window-maximized="0"
     inkscape:current-layer="svg7" /><defs
     id="defs4"><clipPath
       id="b"><path
         d="m24.749-12.957 0.12236-3.49 15.683 0.15836 0.08627 2.6129z"
         display="none"
         fill="#fff"
         id="path1" /><path
         class="powerclip"
         d="m17.102-21.136h28.328v28.328h-28.328zm7.6478 8.1795 15.892-0.71875-0.08627-2.6129-15.683-0.15836z"
         fill="#fff"
         id="path2" /></clipPath><clipPath
       id="a"><path
         d="m27.883 11.27-1.1087 1.1118 2.0778 1.1963 0.74376-0.51335z"
         display="none"
         fill="#f9f9f9"
         id="path3" /><path
         class="powerclip"
         d="m19.126 1.7234h15.069v16.43h-15.069zm8.757 9.5461-1.1087 1.1118 2.0778 1.1963 0.74376-0.51335z"
         display="block"
         fill="#f9f9f9"
         id="path4" /></clipPath></defs><path
     style="color:#000000;fill:#ffffff;stroke-width:1.00881678;stroke-dasharray:none;stroke:none"
     d="M 28.5,-9.1132813 V 9.765625 H 47.378906 V -9.1132813 Z m 2.595703,2.5957032 H 44.78125 V 7.1679687 H 31.095703 Z"
     id="rect4"
     transform="matrix(0.63806327,0.76998394,-0.63806327,0.76998394,0,0)" /><path
     d="m 26.400962,17.893732 4.54148,-5.312765 c 0,0 0.114502,0.461571 0.0033,0.780269 -0.118274,0.339396 -1.016176,0.91985 -0.291818,1.914608 0.724358,0.994758 4.24477,4.672428 4.24477,4.672428 l -1.646609,1.91941 -3.949761,-4.405129 c 0,0 -1.057391,-0.580905 -1.897601,0.355872 -0.840201,0.936776 -0.850145,1.144723 -0.850145,1.144723 z"
     fill="#ffffff"
     id="path7"
     style="stroke-width:1;stroke:none;stroke-dasharray:none" /><path
     d="m 25.794754,6.1951084 -2.073033,1.9694784 3.000124,3.5860902 0.694853,-0.690699 C 24.122163,8.091047 25.794754,6.1951084 25.794754,6.1951084 Z"
     style="display:inline;fill:#ffffff;stroke-width:1.00037"
     id="path9"
     sodipodi:nodetypes="ccccc" /><path
     style="color:#000000;fill:#ffffff;stroke-width:1.00037;-inkscape-stroke:none"
     d="M 32.752405,18.537564 24.001122,29.09811 15.249838,18.537564 25.794754,6.1951084 24.00037,4.0003653 11.971282,18.537564 24.001122,33.052698 34.898695,19.948272"
     id="path11"
     sodipodi:nodetypes="cccccccc" /></svg>

<?xml version="1.0" encoding="UTF-8"?>
<svg version="1.1" viewBox="0 0 48 48" xml:space="preserve" xmlns="http://www.w3.org/2000/svg"><path transform="matrix(.63806 .76998 -.63806 .76998 0 0)" d="m28.5-9.1133v18.879h18.879v-18.879zm2.5957 2.5957h13.686v13.686h-13.686z" color="#000000" fill="#fff" stroke-width="1"/><path d="m26.401 17.894 4.5415-5.3128s0.1145 0.46157 0.0033 0.78027c-0.11827 0.3394-1.0162 0.91985-0.29182 1.9146s4.2448 4.6724 4.2448 4.6724l-1.6466 1.9194-3.9498-4.4051s-1.0574-0.5809-1.8976 0.35587c-0.8402 0.93678-0.85014 1.1447-0.85014 1.1447z" fill="#fff"/><path d="m25.795 6.1951-2.073 1.9695 3.0001 3.5861 0.69485-0.6907c-3.2945-2.9689-1.6219-4.8649-1.6219-4.8649z" fill="#fff"/><path d="m32.752 18.538-8.7513 10.561-8.7513-10.561 10.545-12.342-1.7944-2.1947-12.029 14.537 12.03 14.515 10.898-13.104" color="#000000" fill="#fff"/></svg>
